X:1
L:1/8
M:3/4
K:C
""^A"" EF | G3 ^F AG | c3 B dc | e4 f2 | g4 fe | dG Gg fe | dG Gf ed | cE Ec BA | G4 EF | G3 ^F AG | 
 c3 B dc | e4 fg | !fermata!a4 gf | eG Gg ce | dG Gg ed | c3 G ed |""_Fine"" c4 |][M:3/4]""^B"" e2 | 
 dg gf df | eg ec G2 | d z/ ^c/ d z/ c/ d z/ f/ | e2 c2 g2 | dg gf df | eg ec G2 | 
 d z/ ^c/ d z/ c/ de | c4 e2 | dg gf df | eg ec G2 | d z/ ^c/ d z/ c/ d z/ f/ | e2 c2 g2 | 
 dg gf df | eg ec G2 | d z/ ^c/ d z/ c/ de | c4 |:[M:2/4]""^C"" !fermata!E2 !fermata!F2 | Ge eG | 
 Ge eG | Gg ef | e2 fe | dB Be | dG Ge/d/ | cE EA | G2 EF | Ge eG | Ge eG | Gg ef | e2 ag | fA gf | 
 eG fe | d^c d_e | e2 ag | fA gf | eG fe | dg ed | (c4 | c2)""_>Teil A"" z2 :|
